X: 18659
T: I'll Buy Boots For Maggie
R: polka
M: 2/4
K: Aminor
|:A>B cd|eg ga|eg/e/ dB|AB GE|
A>B cd|eg ga|eg/e/ dB-|1 Bc BG:|2 BA cB||
|:ea ab|c'b ae|fa ab|c'b ae|^fa ab|
c'b a2|1 eg/e/ dB|BA cB:|2 ag ^f=f|ed cB||

